mimes/48/image-jpeg.svg

<?xml version="1.0" encoding="UTF-8" standalone="no"?>
<!-- Created with Inkscape (http://www.inkscape.org/) -->

<svg
   xmlns:svg="http://www.w3.org/2000/svg"
   xmlns="http://www.w3.org/2000/svg"
   xmlns:xlink="http://www.w3.org/1999/xlink"
   version="1.0"
   width="48"
   height="48"
   id="svg2453">
  <defs
     id="defs2455">
    <linearGradient
       id="linearGradient3211">
      <stop
         id="stop3213"
         style="stop-color:white;stop-opacity:1"
         offset="0" />
      <stop
         id="stop3215"
         style="stop-color:white;stop-opacity:0"
         offset="1" />
    </linearGradient>
    <linearGradient
       x1="22.726027"
       y1="34"
       x2="22.726027"
       y2="38.431622"
       id="linearGradient3217"
       xlink:href="#linearGradient3211"
       gradientUnits="userSpaceOnUse"
       gradientTransform="translate(0,-1.0000003)" />
    <radialGradient
       cx="605.71429"
       cy="486.64789"
       r="117.14286"
       fx="605.71429"
       fy="486.64789"
       id="radialGradient19613"
       xlink:href="#linearGradient5060"
       gradientUnits="userSpaceOnUse"
       gradientTransform="matrix(0.02891661,0,0,0.01235294,26.973101,38.470848)" />
    <linearGradient
       id="linearGradient5060">
      <stop
         id="stop5062"
         style="stop-color:black;stop-opacity:1"
         offset="0" />
      <stop
         id="stop5064"
         style="stop-color:black;stop-opacity:0"
         offset="1" />
    </linearGradient>
    <radialGradient
       cx="605.71429"
       cy="486.64789"
       r="117.14286"
       fx="605.71429"
       fy="486.64789"
       id="radialGradient19616"
       xlink:href="#linearGradient5060"
       gradientUnits="userSpaceOnUse"
       gradientTransform="matrix(-0.0289166,0,0,0.01235294,21.026894,38.470848)" />
    <linearGradient
       id="linearGradient5048">
      <stop
         id="stop5050"
         style="stop-color:black;stop-opacity:0"
         offset="0" />
      <stop
         id="stop5056"
         style="stop-color:black;stop-opacity:1"
         offset="0.5" />
      <stop
         id="stop5052"
         style="stop-color:black;stop-opacity:0"
         offset="1" />
    </linearGradient>
    <linearGradient
       x1="302.85715"
       y1="366.64789"
       x2="302.85715"
       y2="609.50507"
       id="linearGradient19619"
       xlink:href="#linearGradient5048"
       gradientUnits="userSpaceOnUse"
       gradientTransform="matrix(0.08449704,0,0,0.01235294,-6.5396456,38.470822)" />
    <linearGradient
       id="linearGradient259-942">
      <stop
         id="stop3802"
         style="stop-color:white;stop-opacity:1"
         offset="0" />
      <stop
         id="stop3804"
         style="stop-color:#e0e0e0;stop-opacity:1"
         offset="1" />
    </linearGradient>
    <linearGradient
       x1="108.26451"
       y1="110.28094"
       x2="25.817675"
       y2="14.029031"
       id="linearGradient2447"
       xlink:href="#linearGradient259-942"
       gradientUnits="userSpaceOnUse"
       gradientTransform="matrix(0.5066363,0,0,0.3512482,-58.338079,-49.085984)" />
    <linearGradient
       id="linearGradient3610-302">
      <stop
         id="stop3796"
         style="stop-color:#333;stop-opacity:1"
         offset="0" />
      <stop
         id="stop3798"
         style="stop-color:#292929;stop-opacity:1"
         offset="1" />
    </linearGradient>
    <linearGradient
       x1="-24.032034"
       y1="-13.090545"
       x2="-24.097931"
       y2="-40.163883"
       id="linearGradient2444"
       xlink:href="#linearGradient3610-302"
       gradientUnits="userSpaceOnUse"
       gradientTransform="matrix(1.1142851,0,0,1.1111113,2.7514431,3.5103428)" />
    <linearGradient
       id="linearGradient4157-401-351">
      <stop
         id="stop3790"
         style="stop-color:#262626;stop-opacity:1"
         offset="0" />
      <stop
         id="stop3792"
         style="stop-color:#828282;stop-opacity:1"
         offset="1" />
    </linearGradient>
    <linearGradient
       x1="28.938274"
       y1="17.33289"
       x2="105.36545"
       y2="92.823723"
       id="linearGradient2442"
       xlink:href="#linearGradient4157-401-351"
       gradientUnits="userSpaceOnUse"
       gradientTransform="matrix(0.4908393,0,0,0.3803351,-57.357124,-48.338393)" />
  </defs>
  <g
     id="layer1">
    <g
       id="g3257"
       style="opacity:0.4">
      <rect
         width="40.799999"
         height="2.9999998"
         x="3.5999999"
         y="43"
         id="rect2879"
         style="fill:url(#linearGradient19619);fill-opacity:1;fill-rule:nonzero;stroke:none;stroke-width:1;marker:none;visibility:visible;display:inline;overflow:visible" />
      <path
         d="m 3.6,43.00013 c 0,0 0,2.999835 0,2.999835 C 2.1108662,46.005612 0,45.327854 0,44.499854 0,43.671856 1.6617608,43.000131 3.6,43.00013 z"
         id="path2881"
         style="fill:url(#radialGradient19616);fill-opacity:1;fill-rule:nonzero;stroke:none;stroke-width:1;marker:none;visibility:visible;display:inline;overflow:visible" />
      <path
         d="m 44.4,43.00013 c 0,0 0,2.999835 0,2.999835 1.489133,0.0056 3.6,-0.672111 3.6,-1.500111 0,-0.827998 -1.661761,-1.499723 -3.6,-1.499724 z"
         id="path2883"
         style="fill:url(#radialGradient19613);fill-opacity:1;fill-rule:nonzero;stroke:none;stroke-width:1;marker:none;visibility:visible;display:inline;overflow:visible" />
    </g>
    <rect
       width="44.965565"
       height="35.922085"
       x="-46.457321"
       y="-44.502605"
       transform="matrix(-0.9999985,0.00173317,-9.6052603e-4,-0.9999995,0,0)"
       id="rect3580"
       style="fill:url(#linearGradient2447);fill-opacity:1;stroke:#c1c1c1;stroke-width:0.99999994;stroke-linecap:round;stroke-linejoin:miter;stroke-miterlimit:4;stroke-opacity:0.96862745;stroke-dasharray:none" />
    <rect
       width="38.927383"
       height="29.853907"
       rx="0"
       ry="0"
       x="-43.528763"
       y="-41.517406"
       transform="matrix(-0.9999929,0.00375523,0.00244093,-0.999997,0,0)"
       id="rect3582"
       style="fill:url(#linearGradient2442);fill-opacity:1;stroke:url(#linearGradient2444);stroke-width:1.00000966;stroke-linecap:round;stroke-linejoin:miter;stroke-miterlimit:4;stroke-opacity:1;stroke-dasharray:none" />
  </g>
  <path
     d="m 13.766046,21 c 0.409624,0 0.81925,0 1.228875,0 -0.02147,3.036203 0.04688,6.074464 -0.04204,9.109143 0.01522,1.210388 -0.675556,2.509612 -1.998479,2.780354 C 11.531945,33.258234 10.056336,32.659613 9,31.754039 c 0.2663728,-0.227375 0.4361253,-0.945368 0.7657442,-0.851593 1.0086258,0.81452 2.9191508,1.647245 3.7262918,0.135222 0.449504,-1.306359 0.215751,-2.714994 0.27401,-4.070979 0,-1.988896 0,-3.977793 0,-5.966689 z M 18,21.004017 c 0,3.968147 0,7.950398 0,11.918546 0.24846,0.155273 0.780306,0.02137 1.132693,0.06549 0,-1.655239 0,-3.321735 0,-4.976976 -0.128654,-0.555942 0.127067,-0.689998 0.612267,-0.589378 1.58535,-0.06455 3.506204,0.214315 4.653226,-1.244244 C 25.57988,24.59581 24.9643,21.823941 23.051199,21.265963 21.39924,20.859246 19.682871,21.054194 18,21.004017 z m 1.132693,1.178757 c 1.155742,0.03672 2.322964,-0.105194 3.459306,0.163717 1.46377,0.419761 1.692581,2.817248 0.36736,3.569015 -1.200045,0.569433 -2.551551,0.278201 -3.826666,0.327432 0,-1.356355 0,-2.703809 0,-4.060164 z m 19.198355,1.023231 c -0.290861,0.279263 -0.581721,0.558527 -0.872582,0.837789 -1.667202,-1.737362 -4.437627,-2.52689 -6.623296,-1.32877 -2.187323,1.020461 -3.309511,3.881228 -2.278088,6.11503 1.186827,3.013174 5.490403,4.110529 7.899636,1.952537 0.574665,-0.497231 1.61809,-2.028107 1.026171,-2.449006 -1.1129,-1e-6 -2.2258,-1e-6 -3.3387,-1e-6 0.04527,-0.342507 -0.08851,-0.866475 0.06278,-1.101538 1.596665,0 3.193329,0 4.789994,0 0.06778,2.114696 -1.002468,4.329997 -2.969428,5.208972 -2.606465,1.134568 -6.041872,0.548753 -7.80129,-1.819118 -1.975351,-2.417622 -1.498946,-6.379754 0.959856,-8.278193 2.560066,-2.06259 6.516776,-1.658781 8.843555,0.58328 l 0.150934,0.137024 0.150455,0.141994 10e-7,0 z"
     id="path2435"
     style="font-size:15.90679646px;font-style:normal;font-variant:normal;font-weight:normal;font-stretch:normal;fill:white;fill-opacity:1;stroke:none;font-family:Century Gothic;-inkscape-font-specification:Century Gothic" />
  <path
     d="m 13.766046,45 c 0.409624,0 0.81925,0 1.228875,0 -0.02147,-3.036203 0.04688,-6.074464 -0.04204,-9.109143 0.01522,-1.210388 -0.675556,-2.509612 -1.998479,-2.780354 C 11.531945,32.741766 10.056336,33.340387 9,34.245961 c 0.2663728,0.227375 0.4361253,0.945368 0.7657442,0.851593 1.0086258,-0.81452 2.9191508,-1.647245 3.7262918,-0.135222 0.449504,1.306359 0.215751,2.714994 0.27401,4.070979 0,1.988896 0,3.977793 0,5.966689 z M 18,44.995983 c 0,-3.968147 0,-7.950398 0,-11.918546 0.24846,-0.155273 0.780306,-0.02137 1.132693,-0.06549 0,1.655239 0,3.321735 0,4.976976 -0.128654,0.555942 0.127067,0.689998 0.612267,0.589378 1.58535,0.06455 3.506204,-0.214315 4.653226,1.244244 1.181694,1.581642 0.566114,4.353511 -1.346987,4.911489 C 21.39924,45.140754 19.682871,44.945806 18,44.995983 z m 1.132693,-1.178757 c 1.155742,-0.03672 2.322964,0.105194 3.459306,-0.163717 1.46377,-0.419761 1.692581,-2.817248 0.36736,-3.569015 -1.200045,-0.569433 -2.551551,-0.278201 -3.826666,-0.327432 0,1.356355 0,2.703809 0,4.060164 z m 19.198355,-1.023231 c -0.290861,-0.279263 -0.581721,-0.558527 -0.872582,-0.837789 -1.667202,1.737362 -4.437627,2.52689 -6.623296,1.32877 -2.187323,-1.020461 -3.309511,-3.881228 -2.278088,-6.11503 1.186827,-3.013174 5.490403,-4.110529 7.899636,-1.952537 0.574665,0.497231 1.61809,2.028107 1.026171,2.449006 -1.1129,10e-7 -2.2258,10e-7 -3.3387,10e-7 0.04527,0.342507 -0.08851,0.866475 0.06278,1.101538 1.596665,0 3.193329,0 4.789994,0 0.06778,-2.114696 -1.002468,-4.329997 -2.969428,-5.208972 -2.606465,-1.134568 -6.041872,-0.548753 -7.80129,1.819118 -1.975351,2.417622 -1.498946,6.379754 0.959856,8.278193 2.560066,2.06259 6.516776,1.658781 8.843555,-0.58328 l 0.150934,-0.137024 0.150455,-0.141994 10e-7,0 z"
     id="path2439"
     style="font-size:15.90679646px;font-style:normal;font-variant:normal;font-weight:normal;font-stretch:normal;opacity:0.3;fill:url(#linearGradient3217);fill-opacity:1;stroke:none;font-family:Century Gothic;-inkscape-font-specification:Century Gothic" />
</svg>

<?xml version="1.0" encoding="UTF-8" standalone="no"?>
<!-- Created with Inkscape (http://www.inkscape.org/) -->
<svg
   xmlns:dc="http://purl.org/dc/elements/1.1/"
   xmlns:cc="http://creativecommons.org/ns#"
   xmlns:rdf="http://www.w3.org/1999/02/22-rdf-syntax-ns#"
   xmlns:svg="http://www.w3.org/2000/svg"
   xmlns="http://www.w3.org/2000/svg"
   xmlns:xlink="http://www.w3.org/1999/xlink"
   xmlns:sodipodi="http://sodipodi.sourceforge.net/DTD/sodipodi-0.dtd"
   xmlns:inkscape="http://www.inkscape.org/namespaces/inkscape"
   version="1.0"
   width="48"
   height="48"
   id="svg2453"
   sodipodi:version="0.32"
   inkscape:version="0.46"
   sodipodi:docname="image-jpeg.svg"
   inkscape:output_extension="org.inkscape.output.svg.inkscape">
  <metadata
     id="metadata40">
    <rdf:RDF>
      <cc:Work
         rdf:about="">
        <dc:format>image/svg+xml</dc:format>
        <dc:type
           rdf:resource="http://purl.org/dc/dcmitype/StillImage" />
      </cc:Work>
    </rdf:RDF>
  </metadata>
  <sodipodi:namedview
     inkscape:window-height="711"
     inkscape:window-width="640"
     inkscape:pageshadow="2"
     inkscape:pageopacity="0.0"
     guidetolerance="10.0"
     gridtolerance="10.0"
     objecttolerance="10.0"
     borderopacity="1.0"
     bordercolor="#666666"
     pagecolor="#ffffff"
     id="base"
     showgrid="false"
     inkscape:zoom="10.375"
     inkscape:cx="24"
     inkscape:cy="24"
     inkscape:window-x="0"
     inkscape:window-y="24"
     inkscape:current-layer="svg2453" />
  <defs
     id="defs2455">
    <linearGradient
       id="linearGradient3211">
      <stop
         id="stop3213"
         style="stop-color:#ffffff;stop-opacity:1"
         offset="0" />
      <stop
         id="stop3215"
         style="stop-color:#ffffff;stop-opacity:0"
         offset="1" />
    </linearGradient>
    <linearGradient
       x1="22.726027"
       y1="34"
       x2="22.726027"
       y2="38.431622"
       id="linearGradient3217"
       xlink:href="#linearGradient3211"
       gradientUnits="userSpaceOnUse"
       gradientTransform="translate(0,-1.0000003)" />
    <radialGradient
       cx="605.71429"
       cy="486.64789"
       r="117.14286"
       fx="605.71429"
       fy="486.64789"
       id="radialGradient19613"
       xlink:href="#linearGradient5060"
       gradientUnits="userSpaceOnUse"
       gradientTransform="matrix(2.891661e-2,0,0,1.2352939e-2,26.973101,38.470848)" />
    <linearGradient
       id="linearGradient5060">
      <stop
         id="stop5062"
         style="stop-color:#000000;stop-opacity:1"
         offset="0" />
      <stop
         id="stop5064"
         style="stop-color:#000000;stop-opacity:0"
         offset="1" />
    </linearGradient>
    <radialGradient
       cx="605.71429"
       cy="486.64789"
       r="117.14286"
       fx="605.71429"
       fy="486.64789"
       id="radialGradient19616"
       xlink:href="#linearGradient5060"
       gradientUnits="userSpaceOnUse"
       gradientTransform="matrix(-2.8916604e-2,0,0,1.2352939e-2,21.026894,38.470848)" />
    <linearGradient
       id="linearGradient5048">
      <stop
         id="stop5050"
         style="stop-color:#000000;stop-opacity:0"
         offset="0" />
      <stop
         id="stop5056"
         style="stop-color:#000000;stop-opacity:1"
         offset="0.5" />
      <stop
         id="stop5052"
         style="stop-color:#000000;stop-opacity:0"
         offset="1" />
    </linearGradient>
    <linearGradient
       x1="302.85715"
       y1="366.64789"
       x2="302.85715"
       y2="609.50507"
       id="linearGradient19619"
       xlink:href="#linearGradient5048"
       gradientUnits="userSpaceOnUse"
       gradientTransform="matrix(8.4497041e-2,0,0,1.2352939e-2,-6.5396456,38.470822)" />
    <linearGradient
       id="linearGradient259-942">
      <stop
         id="stop3802"
         style="stop-color:#ffffff;stop-opacity:1"
         offset="0" />
      <stop
         id="stop3804"
         style="stop-color:#e0e0e0;stop-opacity:1"
         offset="1" />
    </linearGradient>
    <linearGradient
       x1="108.26451"
       y1="110.28094"
       x2="25.817675"
       y2="14.029031"
       id="linearGradient2447"
       xlink:href="#linearGradient259-942"
       gradientUnits="userSpaceOnUse"
       gradientTransform="matrix(0.5066363,0,0,0.3512482,-58.338079,-49.085984)" />
    <linearGradient
       id="linearGradient3610-302">
      <stop
         id="stop3796"
         style="stop-color:#333333;stop-opacity:1"
         offset="0" />
      <stop
         id="stop3798"
         style="stop-color:#292929;stop-opacity:1"
         offset="1" />
    </linearGradient>
    <linearGradient
       x1="-24.032034"
       y1="-13.090545"
       x2="-24.097931"
       y2="-40.163883"
       id="linearGradient2444"
       xlink:href="#linearGradient3610-302"
       gradientUnits="userSpaceOnUse"
       gradientTransform="matrix(1.1142851,0,0,1.1111113,2.7514431,3.5103428)" />
    <linearGradient
       id="linearGradient4157-401-351">
      <stop
         id="stop3790"
         style="stop-color:#262626;stop-opacity:1"
         offset="0" />
      <stop
         id="stop3792"
         style="stop-color:#828282;stop-opacity:1"
         offset="1" />
    </linearGradient>
    <linearGradient
       x1="28.938274"
       y1="17.33289"
       x2="105.36545"
       y2="92.823723"
       id="linearGradient2442"
       xlink:href="#linearGradient4157-401-351"
       gradientUnits="userSpaceOnUse"
       gradientTransform="matrix(0.4908393,0,0,0.3803351,-57.357124,-48.338393)" />
  </defs>
  <g
     id="layer1">
    <g
       id="g3257"
       style="opacity:0.4">
      <rect
         width="40.799999"
         height="2.9999998"
         x="3.5999999"
         y="43"
         id="rect2879"
         style="opacity:1;fill:url(#linearGradient19619);fill-opacity:1;fill-rule:nonzero;stroke:none;stroke-width:1;stroke-linecap:round;stroke-linejoin:miter;marker:none;marker-start:none;marker-mid:none;marker-end:none;stroke-miterlimit:4;stroke-dasharray:none;stroke-dashoffset:0;stroke-opacity:1;visibility:visible;display:inline;overflow:visible" />
      <path
         d="M 3.6,43.00013 C 3.6,43.00013 3.6,45.999965 3.6,45.999965 C 2.1108662,46.005612 7.1054274e-15,45.327854 7.1054274e-15,44.499854 C 7.1054274e-15,43.671856 1.6617608,43.000131 3.6,43.00013 z"
         id="path2881"
         style="opacity:1;fill:url(#radialGradient19616);fill-opacity:1;fill-rule:nonzero;stroke:none;stroke-width:1;stroke-linecap:round;stroke-linejoin:miter;marker:none;marker-start:none;marker-mid:none;marker-end:none;stroke-miterlimit:4;stroke-dasharray:none;stroke-dashoffset:0;stroke-opacity:1;visibility:visible;display:inline;overflow:visible" />
      <path
         d="M 44.4,43.00013 C 44.4,43.00013 44.4,45.999965 44.4,45.999965 C 45.889133,46.005612 48,45.327854 48,44.499854 C 48,43.671856 46.338239,43.000131 44.4,43.00013 z"
         id="path2883"
         style="opacity:1;fill:url(#radialGradient19613);fill-opacity:1;fill-rule:nonzero;stroke:none;stroke-width:1;stroke-linecap:round;stroke-linejoin:miter;marker:none;marker-start:none;marker-mid:none;marker-end:none;stroke-miterlimit:4;stroke-dasharray:none;stroke-dashoffset:0;stroke-opacity:1;visibility:visible;display:inline;overflow:visible" />
    </g>
    <rect
       width="44.965565"
       height="35.922085"
       x="-46.457321"
       y="-44.502605"
       transform="matrix(-0.9999985,1.7331702e-3,-9.6052603e-4,-0.9999995,0,0)"
       id="rect3580"
       style="fill:url(#linearGradient2447);fill-opacity:1;stroke:#c1c1c1;stroke-width:0.99999994;stroke-linecap:round;stroke-linejoin:miter;stroke-miterlimit:4;stroke-dasharray:none;stroke-opacity:0.96862745" />
    <rect
       width="38.927383"
       height="29.853907"
       rx="0"
       ry="0"
       x="-43.528763"
       y="-41.517406"
       transform="matrix(-0.9999929,3.7552317e-3,2.4409349e-3,-0.999997,0,0)"
       id="rect3582"
       style="fill:url(#linearGradient2442);fill-opacity:1;stroke:url(#linearGradient2444);stroke-width:1.00000966;stroke-linecap:round;stroke-linejoin:miter;stroke-miterlimit:4;stroke-dasharray:none;stroke-opacity:1" />
  </g>
  <path
     d="M 13.766046,21 C 14.17567,21 14.585296,21 14.994921,21 C 14.97345,24.036203 15.041798,27.074464 14.952881,30.109143 C 14.968097,31.319531 14.277325,32.618755 12.954402,32.889497 C 11.531945,33.258234 10.056336,32.659613 9,31.754039 C 9.2663728,31.526664 9.4361253,30.808671 9.7657442,30.902446 C 10.77437,31.716966 12.684895,32.549691 13.492036,31.037668 C 13.94154,29.731309 13.707787,28.322674 13.766046,26.966689 C 13.766046,24.977793 13.766046,22.988896 13.766046,21 z M 18,21.004017 C 18,24.972164 18,28.954415 18,32.922563 C 18.24846,33.077836 18.780306,32.943936 19.132693,32.98805 C 19.132693,31.332811 19.132693,29.666315 19.132693,28.011074 C 19.004039,27.455132 19.25976,27.321076 19.74496,27.421696 C 21.33031,27.357146 23.251164,27.636011 24.398186,26.177452 C 25.57988,24.59581 24.9643,21.823941 23.051199,21.265963 C 21.39924,20.859246 19.682871,21.054194 18,21.004017 z M 19.132693,22.182774 C 20.288435,22.219497 21.455657,22.07758 22.591999,22.346491 C 24.055769,22.766252 24.28458,25.163739 22.959359,25.915506 C 21.759314,26.484939 20.407808,26.193707 19.132693,26.242938 C 19.132693,24.886583 19.132693,23.539129 19.132693,22.182774 z M 38.331048,23.206005 C 38.040187,23.485268 37.749327,23.764532 37.458466,24.043794 C 35.791264,22.306432 33.020839,21.516904 30.83517,22.715024 C 28.647847,23.735485 27.525659,26.596252 28.557082,28.830054 C 29.743909,31.843228 34.047485,32.940583 36.456718,30.782591 C 37.031383,30.28536 38.074808,28.754484 37.482889,28.333585 C 36.369989,28.333584 35.257089,28.333584 34.144189,28.333584 C 34.18946,27.991077 34.055683,27.467109 34.206971,27.232046 C 35.803636,27.232046 37.4003,27.232046 38.996965,27.232046 C 39.064749,29.346742 37.994497,31.562043 36.027537,32.441018 C 33.421072,33.575586 29.985665,32.989771 28.226247,30.6219 C 26.250896,28.204278 26.727301,24.242146 29.186103,22.343707 C 31.746169,20.281117 35.702879,20.684926 38.029658,22.926987 L 38.180592,23.064011 L 38.331047,23.206005 L 38.331048,23.206005 z"
     id="path2435"
     style="font-size:15.90679646px;font-style:normal;font-variant:normal;font-weight:normal;font-stretch:normal;fill:#ffffff;fill-opacity:1;stroke:none;stroke-width:1px;stroke-linecap:butt;stroke-linejoin:miter;stroke-opacity:1;font-family:Century Gothic;-inkscape-font-specification:Century Gothic" />
  <path
     d="M 13.766046,45 C 14.17567,45 14.585296,45 14.994921,45 C 14.97345,41.963797 15.041798,38.925536 14.952881,35.890857 C 14.968097,34.680469 14.277325,33.381245 12.954402,33.110503 C 11.531945,32.741766 10.056336,33.340387 9,34.245961 C 9.2663728,34.473336 9.4361253,35.191329 9.7657442,35.097554 C 10.77437,34.283034 12.684895,33.450309 13.492036,34.962332 C 13.94154,36.268691 13.707787,37.677326 13.766046,39.033311 C 13.766046,41.022207 13.766046,43.011104 13.766046,45 z M 18,44.995983 C 18,41.027836 18,37.045585 18,33.077437 C 18.24846,32.922164 18.780306,33.056064 19.132693,33.01195 C 19.132693,34.667189 19.132693,36.333685 19.132693,37.988926 C 19.004039,38.544868 19.25976,38.678924 19.74496,38.578304 C 21.33031,38.642854 23.251164,38.363989 24.398186,39.822548 C 25.57988,41.40419 24.9643,44.176059 23.051199,44.734037 C 21.39924,45.140754 19.682871,44.945806 18,44.995983 z M 19.132693,43.817226 C 20.288435,43.780503 21.455657,43.92242 22.591999,43.653509 C 24.055769,43.233748 24.28458,40.836261 22.959359,40.084494 C 21.759314,39.515061 20.407808,39.806293 19.132693,39.757062 C 19.132693,41.113417 19.132693,42.460871 19.132693,43.817226 z M 38.331048,42.793995 C 38.040187,42.514732 37.749327,42.235468 37.458466,41.956206 C 35.791264,43.693568 33.020839,44.483096 30.83517,43.284976 C 28.647847,42.264515 27.525659,39.403748 28.557082,37.169946 C 29.743909,34.156772 34.047485,33.059417 36.456718,35.217409 C 37.031383,35.71464 38.074808,37.245516 37.482889,37.666415 C 36.369989,37.666416 35.257089,37.666416 34.144189,37.666416 C 34.18946,38.008923 34.055683,38.532891 34.206971,38.767954 C 35.803636,38.767954 37.4003,38.767954 38.996965,38.767954 C 39.064749,36.653258 37.994497,34.437957 36.027537,33.558982 C 33.421072,32.424414 29.985665,33.010229 28.226247,35.3781 C 26.250896,37.795722 26.727301,41.757854 29.186103,43.656293 C 31.746169,45.718883 35.702879,45.315074 38.029658,43.073013 L 38.180592,42.935989 L 38.331047,42.793995 L 38.331048,42.793995 z"
     id="path2439"
     style="font-size:15.90679646px;font-style:normal;font-variant:normal;font-weight:normal;font-stretch:normal;opacity:0.3;fill:url(#linearGradient3217);fill-opacity:1;stroke:none;stroke-width:1px;stroke-linecap:butt;stroke-linejoin:miter;stroke-opacity:1;font-family:Century Gothic;-inkscape-font-specification:Century Gothic" />
</svg>
